;FLAVOR:Marlin
;TIME:11466
;Filament used: 7.55933m
;Layer height: 0.2
;MINX:70.165
;MINY:65.36
;MINZ:0.2
;MAXX:149.835
;MAXY:154.641
;MAXZ:90
;Generated with Creality Slicer 4.8.2-191
M140 S60
M105
M190 S60
M104 S200
M105
M109 S200
M82 ;absolute extrusion mode

G28 ;Home

G92 E0 ;Reset Extruder
G1 Z2.0 F3000 ;Move Z Axis up
G1 X10.1 Y20 Z0.28 F5000.0 ;Move to start position
G1 X10.1 Y200.0 Z0.28 F1500.0 E15 ;Draw the first line
G1 X10.4 Y200.0 Z0.28 F5000.0 ;Move to side a little
G1 X10.4 Y20 Z0.28 F1500.0 E30 ;Draw the second line
G92 E0 ;Reset Extruder
G1 Z2.0 F3000 ;Move Z Axis up
G92 E0
G92 E0
G1 F3600 E-5
;LAYER_COUNT:450
;LAYER:0
M107
G0 F6000 X74.601 Y69.492 Z0.2
;TYPE:SKIRT
G1 F3600 E0
G1 F1200 X74.86 Y69.24 E0.01202
G1 X75.807 Y68.419 E0.05371
G1 X75.952 Y68.307 E0.0598
G1 X76.402 Y67.977 E0.07836
G1 X76.726 Y67.752 E0.09148
G1 X77.518 Y67.25 E0.12267
G1 X77.95 Y67.015 E0.13902
G1 X78.159 Y66.907 E0.14685
G1 X78.669 Y66.66 E0.1657
G1 X78.925 Y66.544 E0.17504
G1 X79.795 Y66.193 E0.20625
G1 X80.264 Y66.039 E0.22266
G1 X80.504 Y65.966 E0.23101
G1 X80.892 Y65.856 E0.24442
G1 X81.168 Y65.783 E0.25392
G1 X82.084 Y65.582 E0.28511
G1 X82.684 Y65.494 E0.30528
G1 X82.844 Y65.475 E0.31064
G1 X83.295 Y65.431 E0.32571
G1 X83.606 Y65.407 E0.33608
G1 X84.272 Y65.375 E0.35826
G1 X85.129 Y65.361 E0.38677
G1 X134.793 Y65.36 E2.0386
G1 X135.591 Y65.37 E2.06514
G1 X136.248 Y65.399 E2.08702
G1 X136.668 Y65.43 E2.10102
G1 X137.814 Y65.575 E2.13944
G1 X138.146 Y65.635 E2.15066
G1 X139.303 Y65.91 E2.19022
G1 X139.608 Y66 E2.2008
G1 X140.496 Y66.303 E2.232
G1 X141.119 Y66.569 E2.25453
G1 X141.514 Y66.752 E2.26901
G1 X141.89 Y66.934 E2.28291
G1 X142.712 Y67.386 E2.31411
G1 X143.286 Y67.759 E2.33687
G1 X143.529 Y67.928 E2.34672
G1 X143.772 Y68.102 E2.35666
G1 X143.977 Y68.253 E2.36513
G1 X144.961 Y69.071 E2.40769
G1 X145.082 Y69.184 E2.41319
G1 X145.436 Y69.53 E2.42966
G1 X145.71 Y69.81 E2.44269
G1 X146.522 Y70.738 E2.4837
G1 X146.646 Y70.897 E2.49041
G1 X146.946 Y71.3 E2.50712
G1 X147.136 Y71.568 E2.51804
G1 X147.8 Y72.629 E2.55967
G1 X148.031 Y73.049 E2.57562
G1 X148.248 Y73.463 E2.59116
G1 X148.308 Y73.584 E2.59566
G1 X148.751 Y74.605 E2.63267
G1 X148.876 Y74.938 E2.6445
G1 X149.005 Y75.3 E2.65729
G1 X149.087 Y75.544 E2.66585
G1 X149.355 Y76.477 E2.69813
G1 X149.411 Y76.71 E2.7061
G1 X149.523 Y77.227 E2.7237
G1 X149.588 Y77.569 E2.73528
G1 X149.733 Y78.598 E2.76984
G1 X149.758 Y78.865 E2.77876
G1 X149.794 Y79.37 E2.7956
G1 X149.809 Y79.767 E2.80881
G1 X149.833 Y81.006 E2.85003
G1 X149.835 Y81.219 E2.85711
G1 X149.834 Y139.193 E4.78534
G1 X149.828 Y139.632 E4.79994
G1 X149.816 Y140.008 E4.81245
G1 X149.779 Y140.781 E4.83819
G1 X149.71 Y141.594 E4.86533
G1 X149.684 Y141.806 E4.87243
G1 X149.552 Y142.624 E4.89999
G1 X149.48 Y142.97 E4.91175
G1 X149.396 Y143.346 E4.92456
G1 X149.134 Y144.311 E4.95782
G1 X149.073 Y144.501 E4.96445
G1 X148.916 Y144.958 E4.98053
G1 X148.779 Y145.328 E4.99365
G1 X148.279 Y146.472 E5.03517
G1 X148.145 Y146.737 E5.04505
G1 X147.997 Y147.019 E5.05564
G1 X147.876 Y147.242 E5.06408
G1 X147.206 Y148.324 E5.10641
G1 X146.95 Y148.688 E5.12121
G1 X146.324 Y149.495 E5.15518
G1 X146.099 Y149.759 E5.16672
G1 X145.389 Y150.517 E5.20126
G1 X145.116 Y150.782 E5.21392
G1 X144.118 Y151.64 E5.25769
G1 X143.988 Y151.739 E5.26312
G1 X143.598 Y152.023 E5.27917
G1 X143.274 Y152.248 E5.29229
G1 X142.482 Y152.75 E5.32348
G1 X142.05 Y152.985 E5.33984
G1 X141.841 Y153.093 E5.34766
G1 X141.331 Y153.34 E5.36651
G1 X141.075 Y153.456 E5.37586
G1 X140.205 Y153.807 E5.40706
G1 X139.736 Y153.961 E5.42348
G1 X139.496 Y154.034 E5.43182
G1 X139.108 Y154.144 E5.44523
G1 X138.832 Y154.217 E5.45473
G1 X137.916 Y154.418 E5.48592
G1 X137.316 Y154.506 E5.50609
G1 X137.156 Y154.525 E5.51145
G1 X136.705 Y154.569 E5.52652
G1 X136.394 Y154.593 E5.53689
G1 X135.727 Y154.625 E5.5591
G1 X134.869 Y154.639 E5.58765
G1 X85.208 Y154.641 E7.23938
G1 X84.431 Y154.631 E7.26522
G1 X83.766 Y154.601 E7.28736
G1 X83.234 Y154.561 E7.30511
G1 X82.303 Y154.451 E7.33629
G1 X81.298 Y154.24 E7.37044
G1 X80.735 Y154.094 E7.38979
G1 X79.838 Y153.82 E7.42098
G1 X78.868 Y153.425 E7.45582
G1 X78.482 Y153.246 E7.46997
G1 X78.077 Y153.049 E7.48495
G1 X77.256 Y152.594 E7.51617
G1 X76.727 Y152.249 E7.53717
G1 X76.479 Y152.077 E7.54721
G1 X76.181 Y151.863 E7.55942
G1 X75.966 Y151.703 E7.56833
G1 X75.022 Y150.915 E7.60923
G1 X74.915 Y150.815 E7.6141
G1 X74.538 Y150.445 E7.63167
G1 X74.261 Y150.16 E7.64489
G1 X73.466 Y149.246 E7.68518
G1 X73.34 Y149.084 E7.692
G1 X73.049 Y148.692 E7.70824
G1 X72.864 Y148.431 E7.71888
G1 X72.2 Y147.371 E7.76048
G1 X71.969 Y146.951 E7.77643
G1 X71.737 Y146.506 E7.79312
G1 X71.676 Y146.382 E7.79771
G1 X71.249 Y145.395 E7.83348
G1 X71.125 Y145.065 E7.84521
G1 X70.995 Y144.7 E7.85809
G1 X70.911 Y144.45 E7.86687
G1 X70.637 Y143.492 E7.90001
G1 X70.583 Y143.265 E7.90777
G1 X70.476 Y142.763 E7.92484
G1 X70.41 Y142.414 E7.93665
G1 X70.265 Y141.381 E7.97135
G1 X70.241 Y141.121 E7.98003
G1 X70.206 Y140.622 E7.99667
G1 X70.191 Y140.232 E8.00965
G1 X70.167 Y138.994 E8.05083
G1 X70.165 Y138.781 E8.05792
G1 X70.165 Y80.814 E9.98591
G1 X70.17 Y80.433 E9.99858
G1 X70.183 Y80.025 E10.01216
G1 X70.23 Y79.09 E10.0433
G1 X70.386 Y77.718 E10.08922
G1 X70.421 Y77.521 E10.09588
G1 X70.515 Y77.05 E10.11185
G1 X70.604 Y76.651 E10.12545
G1 X70.889 Y75.613 E10.16125
G1 X70.957 Y75.406 E10.1685
G1 X71.091 Y75.024 E10.18196
G1 X71.216 Y74.686 E10.19395
G1 X71.722 Y73.528 E10.23598
G1 X71.869 Y73.238 E10.24679
G1 X72.023 Y72.944 E10.25783
G1 X72.137 Y72.735 E10.26575
G1 X72.789 Y71.684 E10.30689
G1 X73.043 Y71.322 E10.3216
G1 X73.66 Y70.523 E10.35517
G1 X73.884 Y70.259 E10.36669
G1 X74.601 Y69.492 E10.40161
G0 F6000 X74.88 Y69.779
G1 F1200 X75.139 Y69.527 E10.41363
G1 X76.051 Y68.735 E10.4538
G1 X76.196 Y68.623 E10.4599
G1 X76.63 Y68.305 E10.47779
G1 X76.954 Y68.08 E10.49091
G1 X78.134 Y67.37 E10.53672
G1 X78.343 Y67.262 E10.54454
G1 X78.834 Y67.024 E10.56269
G1 X79.09 Y66.908 E10.57204
G1 X80.38 Y66.422 E10.61789
G1 X80.62 Y66.349 E10.62623
G1 X80.995 Y66.242 E10.6392
G1 X81.271 Y66.169 E10.64869
G1 X82.17 Y65.973 E10.6793
G1 X82.731 Y65.891 E10.69816
G1 X82.891 Y65.872 E10.70351
G1 X83.325 Y65.829 E10.71802
G1 X83.636 Y65.805 E10.72839
G1 X84.279 Y65.775 E10.7498
G1 X85.136 Y65.761 E10.77831
G1 X134.793 Y65.76 E12.42991
G1 X135.586 Y65.77 E12.45629
G1 X136.218 Y65.798 E12.47733
G1 X136.638 Y65.829 E12.49134
G1 X137.743 Y65.969 E12.52838
G1 X138.075 Y66.029 E12.5396
G1 X139.19 Y66.293 E12.57771
G1 X139.495 Y66.383 E12.58829
G1 X140.366 Y66.682 E12.61892
G1 X140.951 Y66.932 E12.64008
G1 X141.346 Y67.115 E12.65456
G1 X141.712 Y67.293 E12.66809
G1 X142.519 Y67.737 E12.69873
G1 X143.057 Y68.088 E12.7201
G1 X143.3 Y68.257 E12.72994
G1 X143.534 Y68.424 E12.7395
G1 X143.739 Y68.575 E12.74797
G1 X144.688 Y69.363 E12.789
G1 X144.809 Y69.476 E12.7945
G1 X145.15 Y69.809 E12.81036
G1 X145.424 Y70.089 E12.82339
G1 X146.207 Y70.984 E12.86294
G1 X146.331 Y71.143 E12.86964
G1 X146.619 Y71.531 E12.88572
G1 X146.809 Y71.799 E12.89664
G1 X147.45 Y72.822 E12.93679
G1 X147.681 Y73.242 E12.95274
G1 X147.89 Y73.641 E12.96772
G1 X147.95 Y73.762 E12.97221
G1 X148.377 Y74.746 E13.00789
G1 X148.502 Y75.079 E13.01972
G1 X148.626 Y75.427 E13.032
G1 X148.708 Y75.671 E13.04057
G1 X148.967 Y76.571 E13.07172
G1 X149.023 Y76.804 E13.07969
G1 X149.13 Y77.302 E13.09663
G1 X149.195 Y77.644 E13.10821
G1 X149.335 Y78.635 E13.14149
G1 X149.36 Y78.902 E13.15041
G1 X149.39 Y79.302 E13.16375
G1 X149.409 Y79.775 E13.1795
G1 X149.433 Y81.014 E13.22072
G1 X149.435 Y81.219 E13.22753
G1 X149.434 Y139.188 E15.15559
G1 X149.428 Y139.627 E15.17019
G1 X149.417 Y139.989 E15.18224
G1 X149.38 Y140.762 E15.20798
G1 X149.313 Y141.545 E15.23412
G1 X149.287 Y141.757 E15.24122
G1 X149.16 Y142.546 E15.2678
G1 X149.09 Y142.883 E15.27925
G1 X149.006 Y143.259 E15.29206
G1 X148.754 Y144.188 E15.32408
G1 X148.693 Y144.378 E15.33072
G1 X148.54 Y144.819 E15.34624
G1 X148.403 Y145.189 E15.35936
G1 X147.922 Y146.291 E15.39936
G1 X147.788 Y146.556 E15.40923
G1 X147.646 Y146.828 E15.41944
G1 X147.525 Y147.051 E15.42788
G1 X146.878 Y148.094 E15.4687
G1 X146.622 Y148.458 E15.4835
G1 X146.02 Y149.236 E15.51622
G1 X145.795 Y149.5 E15.52776
G1 X145.11 Y150.23 E15.56105
G1 X144.837 Y150.495 E15.57371
G1 X143.876 Y151.322 E15.61587
G1 X143.746 Y151.421 E15.62131
G1 X143.37 Y151.695 E15.63678
G1 X143.046 Y151.92 E15.6499
G1 X141.866 Y152.63 E15.69571
G1 X141.657 Y152.738 E15.70353
G1 X141.166 Y152.976 E15.72168
G1 X140.91 Y153.092 E15.73103
G1 X139.62 Y153.578 E15.77688
G1 X139.38 Y153.651 E15.78522
G1 X139.005 Y153.758 E15.79819
G1 X138.729 Y153.831 E15.80769
G1 X137.83 Y154.027 E15.83829
G1 X137.269 Y154.109 E15.85715
G1 X137.109 Y154.128 E15.86251
G1 X136.675 Y154.171 E15.87701
G1 X136.364 Y154.195 E15.88739
G1 X135.721 Y154.225 E15.9088
G1 X134.863 Y154.239 E15.93734
G1 X85.208 Y154.241 E17.58887
G1 X84.436 Y154.231 E17.61455
G1 X83.796 Y154.202 E17.63586
G1 X83.264 Y154.162 E17.6536
G1 X82.35 Y154.053 E17.68422
G1 X81.398 Y153.853 E17.71657
G1 X80.835 Y153.707 E17.73592
G1 X79.955 Y153.437 E17.76653
G1 X79.037 Y153.062 E17.79951
G1 X78.651 Y152.883 E17.81366
G1 X78.37 Y152.748 E17.82403
G1 X78.256 Y152.691 E17.82827
G1 X77.451 Y152.244 E17.8589
G1 X76.955 Y151.92 E17.8786
G1 X76.707 Y151.748 E17.88864
G1 X76.42 Y151.542 E17.90039
G1 X76.205 Y151.382 E17.9093
G1 X75.295 Y150.622 E17.94874
G1 X75.188 Y150.522 E17.95361
G1 X74.825 Y150.166 E17.97052
G1 X74.548 Y149.881 E17.98374
G1 X73.782 Y149.001 E18.02254
G1 X73.656 Y148.839 E18.02937
G1 X73.375 Y148.461 E18.04503
G1 X73.19 Y148.2 E18.05568
G1 X72.55 Y147.178 E18.09578
G1 X72.319 Y146.758 E18.11172
G1 X72.096 Y146.329 E18.12781
G1 X72.035 Y146.205 E18.1324
G1 X71.623 Y145.254 E18.16687
G1 X71.499 Y144.924 E18.1786
G1 X71.374 Y144.572 E18.19102
G1 X71.29 Y144.322 E18.19979
G1 X71.026 Y143.399 E18.23172
G1 X70.972 Y143.172 E18.23949
G1 X70.869 Y142.689 E18.25591
G1 X70.803 Y142.34 E18.26772
G1 X70.663 Y141.344 E18.30118
G1 X70.639 Y141.084 E18.30986
G1 X70.605 Y140.601 E18.32597
G1 X70.591 Y140.224 E18.33851
G1 X70.567 Y138.986 E18.3797
G1 X70.565 Y138.781 E18.38652
G1 X70.565 Y80.819 E20.31434
G1 X70.57 Y80.438 E20.32701
G1 X70.582 Y80.045 E20.34009
G1 X70.629 Y79.11 E20.37123
G1 X70.779 Y77.788 E20.41548
G1 X70.814 Y77.591 E20.42213
G1 X70.905 Y77.137 E20.43754
G1 X70.994 Y76.738 E20.45113
G1 X71.269 Y75.738 E20.48563
G1 X71.337 Y75.531 E20.49287
G1 X71.466 Y75.162 E20.50588
G1 X71.591 Y74.824 E20.51786
G1 X72.078 Y73.708 E20.55836
G1 X72.225 Y73.418 E20.56917
G1 X72.374 Y73.135 E20.57981
G1 X72.488 Y72.926 E20.58773
G1 X73.117 Y71.914 E20.62736
G1 X73.371 Y71.552 E20.64207
G1 X73.965 Y70.782 E20.67441
G1 X74.189 Y70.518 E20.68593
G1 X74.88 Y69.779 E20.71958
G0 F6000 X75.159 Y70.065
G1 F1200 X75.418 Y69.813 E20.7316
G1 X76.296 Y69.052 E20.77024
G1 X76.441 Y68.94 E20.77634
G1 X76.858 Y68.634 E20.79354
G1 X77.182 Y68.409 E20.80666
G1 X78.317 Y67.725 E20.85074
G1 X78.526 Y67.617 E20.85856
G1 X78.999 Y67.388 E20.87604
G1 X79.255 Y67.272 E20.88539
G1 X80.497 Y66.804 E20.92953
G1 X80.737 Y66.731 E20.93788
G1 X81.097 Y66.629 E20.95032
G1 X81.373 Y66.556 E20.95982
G1 X82.255 Y66.364 E20.98984
G1 X82.778 Y66.288 E21.00742
G1 X82.938 Y66.269 E21.01278
G1 X83.356 Y66.228 E21.02674
G1 X83.667 Y66.204 E21.03712
G1 X84.285 Y66.175 E21.0577
G1 X85.142 Y66.161 E21.0862
G1 X134.793 Y66.16 E22.7376
G1 X135.58 Y66.17 E22.76378
G1 X136.189 Y66.197 E22.78406
G1 X136.609 Y66.228 E22.79806
G1 X137.672 Y66.363 E22.8337
G1 X138.004 Y66.423 E22.84492
G1 X139.077 Y66.677 E22.8816
G1 X139.382 Y66.767 E22.89218
G1 X140.236 Y67.061 E22.92222
G1 X140.783 Y67.295 E22.942
G1 X141.178 Y67.478 E22.95648
G1 X141.535 Y67.651 E22.96968
G1 X142.325 Y68.087 E22.99969
G1 X142.829 Y68.416 E23.01971
G1 X143.072 Y68.585 E23.02955
G1 X143.297 Y68.746 E23.03875
G1 X143.502 Y68.897 E23.04722
G1 X144.415 Y69.655 E23.08669
G1 X144.536 Y69.768 E23.0922
G1 X144.864 Y70.089 E23.10746
G1 X145.138 Y70.369 E23.12049
G1 X145.891 Y71.23 E23.15854
G1 X146.015 Y71.389 E23.16524
G1 X146.293 Y71.763 E23.18074
G1 X146.483 Y72.031 E23.19167
G1 X147.099 Y73.014 E23.23025
G1 X147.33 Y73.434 E23.24619
G1 X147.531 Y73.819 E23.26064
G1 X147.591 Y73.94 E23.26513
G1 X148.002 Y74.886 E23.29944
G1 X148.127 Y75.219 E23.31127
G1 X148.247 Y75.555 E23.32313
G1 X148.329 Y75.799 E23.3317
G1 X148.578 Y76.664 E23.36163
G1 X148.634 Y76.897 E23.3696
G1 X148.737 Y77.376 E23.3859
G1 X148.802 Y77.718 E23.39748
G1 X148.937 Y78.672 E23.42952
G1 X148.962 Y78.939 E23.43844
G1 X148.995 Y79.414 E23.45428
G1 X149.009 Y79.782 E23.46653
G1 X149.033 Y81.021 E23.50775
G1 X149.035 Y81.219 E23.51433
G1 X149.034 Y139.182 E25.44219
G1 X149.028 Y139.621 E25.45679
G1 X149.017 Y139.97 E25.46841
G1 X148.98 Y140.743 E25.49415
G1 X148.916 Y141.497 E25.51931
G1 X148.89 Y141.709 E25.52642
G1 X148.768 Y142.467 E25.55195
G1 X148.7 Y142.796 E25.56313
G1 X148.616 Y143.172 E25.57594
G1 X148.373 Y144.066 E25.60675
G1 X148.312 Y144.256 E25.61339
G1 X148.165 Y144.68 E25.62832
G1 X148.028 Y145.05 E25.64144
G1 X147.565 Y146.111 E25.67994
G1 X147.431 Y146.376 E25.68982
G1 X147.294 Y146.638 E25.69965
G1 X147.173 Y146.861 E25.70809
G1 X146.551 Y147.864 E25.74735
G1 X146.295 Y148.228 E25.76215
G1 X145.715 Y148.976 E25.79363
G1 X145.49 Y149.24 E25.80517
G1 X144.831 Y149.943 E25.83721
G1 X144.558 Y150.208 E25.84987
G1 X143.634 Y151.004 E25.89043
G1 X143.504 Y151.103 E25.89587
G1 X143.142 Y151.366 E25.91075
G1 X142.818 Y151.591 E25.92387
G1 X141.683 Y152.275 E25.96794
G1 X141.474 Y152.383 E25.97577
G1 X141.001 Y152.612 E25.99325
G1 X140.745 Y152.728 E26.0026
G1 X139.503 Y153.196 E26.04674
G1 X139.263 Y153.269 E26.05508
G1 X138.903 Y153.371 E26.06753
G1 X138.627 Y153.444 E26.07702
G1 X137.745 Y153.636 E26.10705
G1 X137.222 Y153.712 E26.12462
G1 X137.062 Y153.731 E26.12998
G1 X136.644 Y153.772 E26.14395
G1 X136.333 Y153.796 E26.15433
G1 X135.714 Y153.825 E26.17494
G1 X134.856 Y153.839 E26.20348
G1 X85.208 Y153.841 E27.85478
G1 X84.442 Y153.831 E27.88026
G1 X83.826 Y153.803 E27.90077
G1 X83.294 Y153.763 E27.91851
G1 X82.398 Y153.656 E27.94852
G1 X81.499 Y153.465 E27.97909
G1 X80.936 Y153.319 E27.99844
G1 X80.072 Y153.054 E28.0285
G1 X79.205 Y152.699 E28.05966
G1 X78.819 Y152.52 E28.07381
G1 X78.548 Y152.39 E28.0838
G1 X78.434 Y152.333 E28.08804
G1 X77.645 Y151.894 E28.11807
G1 X77.183 Y151.591 E28.13645
G1 X76.935 Y151.419 E28.14649
G1 X76.658 Y151.221 E28.15781
G1 X76.443 Y151.061 E28.16673
G1 X75.568 Y150.33 E28.20465
G1 X75.461 Y150.23 E28.20952
G1 X75.112 Y149.887 E28.2258
G1 X74.835 Y149.602 E28.23901
G1 X74.098 Y148.755 E28.27636
G1 X73.972 Y148.593 E28.28318
G1 X73.701 Y148.229 E28.29828
G1 X73.516 Y147.968 E28.30892
G1 X72.901 Y146.986 E28.34746
G1 X72.67 Y146.566 E28.3634
G1 X72.455 Y146.152 E28.37891
G1 X72.394 Y146.028 E28.38351
G1 X71.998 Y145.114 E28.41664
G1 X71.874 Y144.784 E28.42837
G1 X71.753 Y144.445 E28.44034
G1 X71.669 Y144.195 E28.44911
G1 X71.415 Y143.307 E28.47983
G1 X71.361 Y143.08 E28.48759
G1 X71.262 Y142.614 E28.50343
G1 X71.196 Y142.265 E28.51525
G1 X71.061 Y141.308 E28.54739
G1 X71.037 Y141.048 E28.55608
G1 X71.004 Y140.579 E28.57172
G1 X70.991 Y140.217 E28.58376
G1 X70.967 Y138.979 E28.62495
G1 X70.965 Y138.781 E28.63153
G1 X70.965 Y80.824 E30.55919
G1 X70.97 Y80.443 E30.57186
G1 X70.982 Y80.065 E30.58444
G1 X71.029 Y79.13 E30.61558
G1 X71.173 Y77.858 E30.65816
G1 X71.208 Y77.661 E30.66481
G1 X71.296 Y77.224 E30.67964
G1 X71.385 Y76.825 E30.69324
G1 X71.649 Y75.863 E30.72641
G1 X71.717 Y75.656 E30.73366
G1 X71.841 Y75.301 E30.74617
